Numix-Circle/48x48/apps/fogger.svg

<svg xmlns="http://www.w3.org/2000/svg" xmlns:xlink="http://www.w3.org/1999/xlink" width="48" viewBox="0 0 13.546667 13.546667" height="48">
 <defs>
  <clipPath>
   <rect width="16" x="432" y="116" rx="3" height="16" color="#bebebe"/>
  </clipPath>
  <clipPath>
   <rect width="22" x="433" y="77" rx="5" height="22" color="#bebebe"/>
  </clipPath>
  <clipPath>
   <rect width="20" x="434" y="78" rx="4" height="20" color="#bebebe"/>
  </clipPath>
  <clipPath>
   <rect width="60" x="306" y="142" rx="12.5" height="60" transform="matrix(0 -1 1 0 0 0)" fill="url(#3)" color="#bebebe"/>
  </clipPath>
  <clipPath>
   <rect width="22" x="433" y="77" rx="4" height="22" color="#bebebe"/>
  </clipPath>
  <clipPath>
   <rect width="30" x="433" y="29" rx="6" height="30" color="#bebebe"/>
  </clipPath>
  <clipPath>
   <rect width="42" x="307" y="223" rx="9" height="42" transform="rotate(90)" fill="url(#6)" color="#bebebe"/>
  </clipPath>
  <clipPath>
   <rect width="22" x="433" y="77" rx="5" height="22" color="#bebebe"/>
  </clipPath>
  <clipPath>
   <rect width="90" x="307" y="31" rx="18.75" height="90" fill="url(#0)" color="#bebebe"/>
  </clipPath>
  <clipPath>
   <rect width="22" x="433" y="77" rx="3" height="22" opacity="0.2" fill="#6d6d6d" color="#bebebe"/>
  </clipPath>
  <clipPath>
   <rect width="16" x="432" y="116" rx="2" height="16" opacity="0.2" fill="#6d6d6d" color="#bebebe"/>
  </clipPath>
  <clipPath>
   <rect width="30" x="433" y="29" rx="4" height="30" opacity="0.2" fill="#6d6d6d" color="#bebebe"/>
  </clipPath>
  <clipPath>
   <rect width="30" x="433" y="29" rx="6" height="30" color="#bebebe"/>
  </clipPath>
  <clipPath>
   <rect width="16" x="432" y="116" rx="2" height="16" opacity="0.2" fill="#6d6d6d" color="#bebebe"/>
  </clipPath>
  <clipPath>
   <rect width="90" x="307" y="31" rx="18.75" height="90" fill="url(#5)" color="#bebebe"/>
  </clipPath>
  <clipPath>
   <path d="m 104,100 0,40 -40,0 0,40 40,0 0,40 40,0 80,0 0,-120 -80,0 -40,0 z"/>
  </clipPath>
  <clipPath>
   <rect width="240" x="24" y="36" rx="50" height="240" fill="#986767" color="#bebebe"/>
  </clipPath>
  <clipPath>
   <rect width="240" x="24" y="36" rx="50" height="240" fill="#986767" color="#bebebe"/>
  </clipPath>
  <clipPath>
   <rect width="22" x="433" y="77" rx="3" height="22" opacity="0.2" fill="#6d6d6d" color="#bebebe"/>
  </clipPath>
  <clipPath>
   <rect width="22" x="433" y="77" rx="4" height="22" color="#bebebe"/>
  </clipPath>
  <clipPath>
   <rect width="30" x="433" y="29" rx="4" height="30" opacity="0.2" fill="#6d6d6d" color="#bebebe"/>
  </clipPath>
  <clipPath>
   <rect width="60" x="306" y="142" rx="12.5" height="60" transform="matrix(0 -1 1 0 0 0)" fill="url(#4)" color="#bebebe"/>
  </clipPath>
  <clipPath>
   <rect width="16" x="432" y="116" rx="3" height="16" color="#bebebe"/>
  </clipPath>
  <clipPath>
   <rect width="20" x="434" y="78" rx="4" height="20" color="#bebebe"/>
  </clipPath>
  <clipPath>
   <rect width="42" x="307" y="223" rx="9" height="42" transform="rotate(90)" fill="url(#2)" color="#bebebe"/>
  </clipPath>
  <linearGradient gradientTransform="matrix(.375 0 0 .375 298 16)" id="0" xlink:href="#7" y1="230" y2="90" x2="0" gradientUnits="userSpaceOnUse"/>
  <linearGradient id="1">
   <stop stop-color="#e0491e"/>
   <stop offset="1" stop-color="#f77737"/>
  </linearGradient>
  <linearGradient gradientTransform="matrix(.175 0 0 .175 302.79999 215.99997)" id="2" xlink:href="#8" y1="280" y2="40" x2="0" gradientUnits="userSpaceOnUse"/>
  <linearGradient gradientTransform="matrix(.25 0 0 .25 299.99999 131.99999)" id="3" xlink:href="#7" y1="230" y2="90" x2="0" gradientUnits="userSpaceOnUse"/>
  <linearGradient gradientTransform="matrix(.25 0 0 .25 299.99999 131.99999)" id="4" xlink:href="#8" y1="230" y2="90" x2="0" gradientUnits="userSpaceOnUse"/>
  <linearGradient gradientTransform="matrix(.375 0 0 .375 298 16)" id="5" xlink:href="#8" y1="230" y2="90" x2="0" gradientUnits="userSpaceOnUse"/>
  <linearGradient gradientTransform="matrix(.175 0 0 .175 302.79999 215.99997)" id="6" xlink:href="#7" y1="280" y2="40" x2="0" gradientUnits="userSpaceOnUse"/>
  <linearGradient id="7">
   <stop stop-color="#323232"/>
   <stop offset="1" stop-color="#767676"/>
  </linearGradient>
  <linearGradient id="8">
   <stop stop-color="#f3f3f3"/>
   <stop offset="1" stop-color="#fff"/>
  </linearGradient>
  <linearGradient xlink:href="#1" id="9" gradientUnits="userSpaceOnUse" gradientTransform="matrix(1.10525,0,0,1.10525,-134.27888,-295.76214)" y1="279.1" x2="0" y2="268.33"/>
  <clipPath>
   <rect height="208.57" y="1580.93" x="-830" width="477.14" fill="#ff0"/>
  </clipPath>
  <clipPath>
   <rect height="208.57" y="1580.93" x="-830" width="477.14" fill="#ff0"/>
  </clipPath>
  <clipPath>
   <rect height="208.57" y="1580.93" x="-830" width="477.14" fill="#ff0"/>
  </clipPath>
  <clipPath>
   <rect height="208.57" y="1580.93" x="-830" width="477.14" fill="#ff0"/>
  </clipPath>
  <clipPath>
   <rect transform="matrix(.99975 -.02255 .02255 .99975 0 0)" height="240.87" y="780.64" x="294.93" width="357.87" fill="#f00"/>
  </clipPath>
  <clipPath>
   <rect height="195" y="857.54" width="301.43" fill="#fff"/>
  </clipPath>
  <clipPath>
   <rect height="208.57" y="1580.93" x="-830" width="477.14" fill="#ff0"/>
  </clipPath>
  <clipPath>
   <rect height="30.01" y="977.09" x="276.37" width="79.48" fill="#e20a17"/>
  </clipPath>
  <clipPath>
   <rect transform="rotate(20.37582)" height="37.48" y="0.064" x="8.208" width="506.46" fill="#162d50"/>
  </clipPath>
  <clipPath>
   <rect transform="rotate(.22918)" height="318.4" y="758.67" x="218.9" width="357.38" fill="#fff"/>
  </clipPath>
  <clipPath>
   <rect transform="rotate(.22918)" height="318.4" y="758.67" x="218.9" width="357.38" fill="#fff"/>
  </clipPath>
  <clipPath>
   <rect transform="rotate(20.37582)" height="37.48" y="0.064" x="8.208" width="506.46" fill="#162d50"/>
  </clipPath>
  <clipPath>
   <rect height="208.57" y="1580.93" x="-830" width="477.14" fill="#ff0"/>
  </clipPath>
  <clipPath>
   <rect transform="rotate(.6171)" height="235.88" y="804.24" x="221.39" width="350.46"/>
  </clipPath>
  <clipPath>
   <rect transform="rotate(.16206)" height="279.03" y="793.52" x="257.32" width="287.43" fill="#fff"/>
  </clipPath>
  <clipPath>
   <rect height="195" y="0.06" width="301.43" fill="#fff"/>
  </clipPath>
  <clipPath>
   <rect height="195" y="857.54" width="301.43" fill="#fff"/>
  </clipPath>
  <path clip-path="url(#C)" id="A" d="m 699.2857,672.93231 a 40.714287,40.714287 0 1 1 -81.42858,0 40.714287,40.714287 0 1 1 81.42858,0 z" fill="#4a0"/>
  <clipPath>
   <use xlink:href="#A" transform="matrix(4.3233 0 0 4.3233 -2450.68 -2667.55)"/>
  </clipPath>
  <clipPath>
   <rect transform="rotate(27.44968)" height="41.39" y="815.74" x="448.12" width="63.987" fill="#fff"/>
  </clipPath>
  <clipPath>
   <rect height="195" y="857.54" width="301.43" fill="#fff"/>
  </clipPath>
  <clipPath>
   <rect height="208.57" y="1580.93" x="-830" width="477.14" fill="#ff0"/>
  </clipPath>
  <clipPath>
   <rect height="208.57" y="1580.93" x="-830" width="477.14" fill="#ff0"/>
  </clipPath>
  <clipPath>
   <rect height="208.57" y="1580.93" x="-830" width="477.14" fill="#ff0"/>
  </clipPath>
  <clipPath>
   <rect height="208.57" y="1580.93" x="-830" width="477.14" fill="#ff0"/>
  </clipPath>
  <clipPath>
   <rect height="208.57" y="1580.93" x="-830" width="477.14" fill="#ff0"/>
  </clipPath>
  <clipPath>
   <use xlink:href="#A"/>
  </clipPath>
  <clipPath>
   <rect height="208.57" y="1580.93" x="-830" width="477.14" fill="#ff0"/>
  </clipPath>
  <path id="B" d="m 699.2857,672.93231 a 40.714287,40.714287 0 1 1 -81.42858,0 40.714287,40.714287 0 1 1 81.42858,0 z" fill="#4a0"/>
  <clipPath id="C">
   <use xlink:href="#B"/>
  </clipPath>
  <clipPath>
   <use transform="matrix(4.3233 0 0 4.3233 -2450.68 -2667.55)" xlink:href="#B"/>
  </clipPath>
 </defs>
 <rect height="12.982" rx="6.491" y="0.283" x="0.282" width="12.982" opacity="0.5" fill="#ffffff" fill-rule="evenodd"/>
 <rect height="11.853" rx="5.926" y="0.847" x="0.847" width="11.853" fill="url(#9)" fill-rule="evenodd"/>
 <path d="M 21.1875 15 C 20.620872 15.01658 20.039567 15.110781 19.46875 15.3125 C 17.026614 16.175388 15.170053 18.675888 14.625 21.78125 C 13.021312 22.183434 11.629461 23.668401 11.15625 25.78125 C 10.484554 28.780602 11.89338 31.875046 14.28125 32.71875 C 14.32035 32.73058 14.36712 32.7393 14.40625 32.75 C 14.736054 32.898029 15.066191 33 15.4375 33 L 32.78125 33 C 33.400925 33 33.952914 32.763238 34.4375 32.375 C 36.372856 31.214304 37.444291 28.462782 36.84375 25.78125 C 36.400068 23.800108 35.161551 22.346519 33.6875 21.84375 C 33.67474 21.77743 33.67092 21.722567 33.65625 21.65625 C 32.984542 18.656913 30.481597 16.906295 28.09375 17.75 C 27.635356 17.912237 27.228209 18.178936 26.84375 18.5 C 25.527175 16.278544 23.420034 14.937189 21.1875 15 z M 24 19 L 25 21 L 23 21 L 24 19 z M 18 20 L 20 20 L 20 21 L 19 21 L 19 22 L 20 22 L 20 24 L 19 24 L 19 25 L 20 25 L 20 27 L 19 27 L 19 28 L 20 28 L 20 30 L 19 30 L 19 31 L 20 31 L 20 32 L 18 32 L 18 20 z M 28.75 20.40625 L 28.75 21.5 C 28.622435 21.5906 28.53125 21.737871 28.53125 21.90625 C 28.53125 22.182392 28.755108 22.40625 29.03125 22.40625 C 29.307392 22.40625 29.53125 22.182392 29.53125 21.90625 C 29.53125 21.714298 29.408706 21.552548 29.25 21.46875 L 29.25 20.40625 C 29.643073 21.009446 30.2482 21.945717 29.90625 22.5625 C 29.576701 23.156909 28.427143 23.15386 28.09375 22.5625 C 27.750037 21.952837 28.345346 21.011453 28.75 20.40625 z M 23 22 L 25 22 L 25 32 L 23 32 L 23 22 z M 28 24 L 30 24 L 30 32 L 28 32 L 28 24 z " transform="scale(0.28222223,0.28222223)" fill="#f9f9f9"/>
</svg>

<svg viewBox="0 0 48 48"><defs><linearGradient id="1" gradientUnits="userSpaceOnUse" y1="15" x2="0" y2="11" gradientTransform="matrix(15.333333,0,0,11.5,414.99999,-125.5)"><stop/><stop offset="1" stop-opacity="0"/></linearGradient><clipPath id="clipPath-576398640"><g transform="translate(0,-1004.3622)"><path d="m -24 13 c 0 1.105 -0.672 2 -1.5 2 -0.828 0 -1.5 -0.895 -1.5 -2 0 -1.105 0.672 -2 1.5 -2 0.828 0 1.5 0.895 1.5 2 z" transform="matrix(15.333333,0,0,11.5,414.99999,878.8622)" fill="#1890d0"/></g></clipPath><clipPath id="clipPath-588065725"><g transform="translate(0,-1004.3622)"><path d="m -24 13 c 0 1.105 -0.672 2 -1.5 2 -0.828 0 -1.5 -0.895 -1.5 -2 0 -1.105 0.672 -2 1.5 -2 0.828 0 1.5 0.895 1.5 2 z" transform="matrix(15.333333,0,0,11.5,414.99999,878.8622)" fill="#1890d0"/></g></clipPath></defs><g><g transform="translate(0,-1004.3622)"><path d="m 25 1006.36 c -12.703 0 -23 10.298 -23 23 0 6.367 2.601 12.12 6.781 16.281 4.085 3.712 9.514 5.969 15.469 5.969 12.703 0 23 -10.297 23 -23 0 -5.954 -2.256 -11.384 -5.969 -15.469 -4.165 -4.181 -9.914 -6.781 -16.281 -6.781 z m 16.281 6.781 c 3.854 4.113 6.219 9.637 6.219 15.719 0 12.703 -10.297 23 -23 23 -6.081 0 -11.606 -2.364 -15.719 -6.219 4.16 4.144 9.883 6.719 16.219 6.719 12.703 0 23 -10.297 23 -23 0 -6.335 -2.575 -12.06 -6.719 -16.219 z" opacity="0.05"/><path d="m 41.28 1013.14 c 3.712 4.085 5.969 9.514 5.969 15.469 0 12.703 -10.297 23 -23 23 -5.954 0 -11.384 -2.256 -15.469 -5.969 4.113 3.854 9.637 6.219 15.719 6.219 12.703 0 23 -10.297 23 -23 0 -6.081 -2.364 -11.606 -6.219 -15.719 z" opacity="0.1"/><path transform="matrix(15.333333,0,0,11.5,415.24999,879.11222)" d="m -24 13 a 1.5 2 0 1 1 -3 0 1.5 2 0 1 1 3 0 z" opacity="0.2"/></g></g><g><g transform="translate(0,-1004.3622)"><path d="m -24 13 c 0 1.105 -0.672 2 -1.5 2 -0.828 0 -1.5 -0.895 -1.5 -2 0 -1.105 0.672 -2 1.5 -2 0.828 0 1.5 0.895 1.5 2 z" transform="matrix(15.333333,0,0,11.5,414.99999,878.8622)" fill="#f26d32"/></g></g><g><path d="m 47 24 c 0 12.703 -10.297 23 -23 23 -12.703 0 -23 -10.297 -23 -23 0 -12.703 10.297 -23 23 -23 12.703 0 23 10.297 23 23 z" opacity="0.15" fill="url(#1)"/></g><g><g clip-path="url(#clipPath-576398640)"><g transform="translate(0,1)"><g opacity="0.1"><!-- color: #f26d32 --><g><path d="m 21.19 15 c -0.57 0.016 -1.148 0.109 -1.719 0.313 c -2.445 0.863 -4.301 3.363 -4.844 6.469 c -1.605 0.402 -2.996 1.887 -3.473 4 c -0.672 3 0.738 6.094 3.125 6.938 c 0.039 0.012 0.086 0.023 0.125 0.031 c 0.332 0.148 0.66 0.25 1.031 0.25 l 17.344 0 c 0.621 0 1.172 -0.234 1.656 -0.625 c 1.938 -1.16 3.01 -3.91 2.406 -6.594 c -0.441 -1.98 -1.68 -3.434 -3.156 -3.938 c -0.012 -0.066 -0.016 -0.121 -0.031 -0.188 c -0.672 -3 -3.172 -4.75 -5.563 -3.906 c -0.457 0.16 -0.863 0.43 -1.25 0.75 c -1.316 -2.223 -3.422 -3.563 -5.656 -3.5 m 2.816 4 l 1 2 l -2 0 m -5 -1 l 2 0 l 0 1 l -1 0 l 0 1 l 1 0 l 0 2 l -1 0 l 0 1 l 1 0 l 0 2 l -1 0 l 0 1 l 1 0 l 0 2 l -1 0 l 0 1 l 1 0 l 0 1 l -2 0 m 10.75 -11.594 l 0 1.094 c -0.129 0.09 -0.219 0.238 -0.219 0.406 c 0 0.277 0.223 0.5 0.5 0.5 c 0.273 0 0.5 -0.223 0.5 -0.5 c 0 -0.191 -0.125 -0.355 -0.281 -0.438 l 0 -1.063 c 0.391 0.602 0.996 1.539 0.656 2.156 c -0.332 0.594 -1.48 0.59 -1.813 0 c -0.344 -0.613 0.25 -1.551 0.656 -2.156 m -5.75 1.594 l 2 0 l 0 10 l -2 0 m 5 -8 l 2 0 l 0 8 l -2 0 m 0 -8" fill="#000" stroke="none" fill-rule="nonzero" fill-opacity="1"/></g></g></g></g></g><g><g clip-path="url(#clipPath-588065725)"><!-- color: #f26d32 --><g><path d="m 21.19 15 c -0.57 0.016 -1.148 0.109 -1.719 0.313 c -2.445 0.863 -4.301 3.363 -4.844 6.469 c -1.605 0.402 -2.996 1.887 -3.473 4 c -0.672 3 0.738 6.094 3.125 6.938 c 0.039 0.012 0.086 0.023 0.125 0.031 c 0.332 0.148 0.66 0.25 1.031 0.25 l 17.344 0 c 0.621 0 1.172 -0.234 1.656 -0.625 c 1.938 -1.16 3.01 -3.91 2.406 -6.594 c -0.441 -1.98 -1.68 -3.434 -3.156 -3.938 c -0.012 -0.066 -0.016 -0.121 -0.031 -0.188 c -0.672 -3 -3.172 -4.75 -5.563 -3.906 c -0.457 0.16 -0.863 0.43 -1.25 0.75 c -1.316 -2.223 -3.422 -3.563 -5.656 -3.5 m 2.816 4 l 1 2 l -2 0 m -5 -1 l 2 0 l 0 1 l -1 0 l 0 1 l 1 0 l 0 2 l -1 0 l 0 1 l 1 0 l 0 2 l -1 0 l 0 1 l 1 0 l 0 2 l -1 0 l 0 1 l 1 0 l 0 1 l -2 0 m 10.75 -11.594 l 0 1.094 c -0.129 0.09 -0.219 0.238 -0.219 0.406 c 0 0.277 0.223 0.5 0.5 0.5 c 0.273 0 0.5 -0.223 0.5 -0.5 c 0 -0.191 -0.125 -0.355 -0.281 -0.438 l 0 -1.063 c 0.391 0.602 0.996 1.539 0.656 2.156 c -0.332 0.594 -1.48 0.59 -1.813 0 c -0.344 -0.613 0.25 -1.551 0.656 -2.156 m -5.75 1.594 l 2 0 l 0 10 l -2 0 m 5 -8 l 2 0 l 0 8 l -2 0 m 0 -8" fill="#f9f9f9" stroke="none" fill-rule="nonzero" fill-opacity="1"/></g></g></g><g><path d="m 40.03 7.531 c 3.712 4.084 5.969 9.514 5.969 15.469 0 12.703 -10.297 23 -23 23 c -5.954 0 -11.384 -2.256 -15.469 -5.969 4.178 4.291 10.01 6.969 16.469 6.969 c 12.703 0 23 -10.298 23 -23 0 -6.462 -2.677 -12.291 -6.969 -16.469 z" opacity="0.1"/></g></svg>
